X: 238
T: You Are My Sunshine
C:Jimmie Davis
B: steve song book
M:C
L:1/4
Q: 1/4=100
K:G
V:1 
D G A |: B2 (B2| B) B ^A B|G2 (G2|
G) G A B|c2 e2|d2 c2|(B4|
B) G A B|c2 (e2|e) e d c|B2 (G2|
G2) G A|B3 c|A3 B|(G4):|
% abcbook-tune_id 62a0796c925cd89ec6b43294


% abcbook-boost 0
% abcbook-tablature 
% abcbook-transpose 
% abcbook-lastupdated 1655019207709
% abcbook-soundfonts 
% abcbook-repeats 1


